X:8
T:Cameron’s Got his Wife again.2voices. RH.008
R:Strathspey
S:Rev.R.Harrison’s MS,c1815,Cumbria
O:England
A:Temple Sowerby,Cumbria
Z:vmp.Simon Wilson. Review PJH, 2008.
M:C
L:1/8
Q:2/4=60
V:1 name=”primo”
V:2 name=”bass”
K:D
[V:1]|:B|d>BAF A/A/A AB|{AB}d>B A>F E/E/E E>c|d>BAF Agfe|d>B A>F D/D/D D:|
[V:2]|:z|D,2D,2D,2D,2|D,2D,2A,2A,2|D,2D,2A,2A,2|D,2D,2D,2D,:|
%
[V:1]|:g|f>df>a (e>gf>e)|f<df<a B/B/B B>g|f<dg<f e>gf>e|{c}d>B A>F D/D/D D:|
[V:2]|:z|D,2D,2A,2A,2|D,2D,2G,2G,2|D,2D,2A,2A,2|D,2D,2D,2D,:|

